X: 17503
T: Hills Of Glenorchy, The
R: jig
M: 6/8
K: Edorian
d/>c/|B>EE E>FE|B>AB d2 c/<B/|A>FE D>ED|FDF A2 d/<c/|
B>EE E>FE|BAB e2 d/<c/|d>cB A<FA|BEE E2||
B/d/|e>fe Bcd|e>fe B2 c|d>cB ABc|d>cB A2 d|
e>fe Bcd|e>fe B2 c/>c/|d>cB A<FA|BEE E2||

